assets/images/flag/uk.svg

<svg width="28" height="28" viewBox="0 0 28 28" fill="none" xmlns="http://www.w3.org/2000/svg">
<g clip-path="url(#clip0_22_117)">
<path d="M14 28C21.732 28 28 21.732 28 14C28 6.26801 21.732 0 14 0C6.26801 0 0 6.26801 0 14C0 21.732 6.26801 28 14 28Z" fill="#F0F0F0"/>
<path d="M2.89407 5.47632C1.79436 6.90711 0.965136 8.55621 0.4823 10.3477H7.76547L2.89407 5.47632Z" fill="#0052B4"/>
<path d="M27.5177 10.3479C27.0349 8.55645 26.2056 6.90735 25.106 5.47656L20.2347 10.3479H27.5177Z" fill="#0052B4"/>
<path d="M0.4823 17.6521C0.96519 19.4436 1.79442 21.0927 2.89407 22.5234L7.76531 17.6521H0.4823Z" fill="#0052B4"/>
<path d="M22.5235 2.89401C21.0927 1.7943 19.4437 0.965068 17.6522 0.482178V7.7653L22.5235 2.89401Z" fill="#0052B4"/>
<path d="M5.4765 25.1059C6.90729 26.2056 8.55639 27.0348 10.3478 27.5177V20.2346L5.4765 25.1059Z" fill="#0052B4"/>
<path d="M10.3478 0.482178C8.55634 0.965068 6.90724 1.79429 5.4765 2.89395L10.3478 7.76524V0.482178Z" fill="#0052B4"/>
<path d="M17.6522 27.5177C19.4437 27.0348 21.0928 26.2056 22.5235 25.1059L17.6522 20.2346V27.5177Z" fill="#0052B4"/>
<path d="M20.2347 17.6521L25.106 22.5234C26.2056 21.0927 27.0349 19.4436 27.5177 17.6521H20.2347Z" fill="#0052B4"/>
<path d="M27.8815 12.1739H15.8262H15.8261V0.118508C15.2283 0.0406875 14.6189 0 14 0C13.381 0 12.7717 0.0406875 12.1739 0.118508V12.1738V12.1739H0.118508C0.0406875 12.7717 0 13.3811 0 14C0 14.619 0.0406875 15.2283 0.118508 15.8261H12.1738H12.1739V27.8815C12.7717 27.9593 13.381 28 14 28C14.6189 28 15.2283 27.9594 15.8261 27.8815V15.8262V15.8261H27.8815C27.9593 15.2283 28 14.619 28 14C28 13.3811 27.9593 12.7717 27.8815 12.1739V12.1739Z" fill="#D80027"/>
<path d="M17.6522 17.6522L23.8995 23.8994C24.1868 23.6122 24.4609 23.3119 24.7224 23.0006L19.3739 17.6521H17.6522V17.6522Z" fill="#D80027"/>
<path d="M10.3478 17.6523H10.3477L4.10046 23.8996C4.38768 24.1869 4.68797 24.461 4.99925 24.7225L10.3478 19.3739V17.6523Z" fill="#D80027"/>
<path d="M10.3478 10.348V10.3479L4.10053 4.10059C3.8132 4.3878 3.5391 4.68809 3.27759 4.99937L8.62619 10.348H10.3478V10.348Z" fill="#D80027"/>
<path d="M17.6522 10.3479L23.8996 4.10047C23.6123 3.81314 23.312 3.53905 23.0008 3.27759L17.6522 8.62619V10.3479Z" fill="#D80027"/>
</g>
<defs>
<clipPath id="clip0_22_117">
<rect width="28" height="28" fill="white"/>
</clipPath>
</defs>
</svg>

<svg xmlns="http://www.w3.org/2000/svg" width="28" height="28" fill="none"><g clip-path="url(#a)"><path fill="#F0F0F0" d="M14 28c7.732 0 14-6.268 14-14S21.732 0 14 0 0 6.268 0 14s6.268 14 14 14"/><path fill="#0052B4" d="M2.894 5.476a14 14 0 0 0-2.412 4.872h7.283zM27.518 10.348a14 14 0 0 0-2.412-4.871l-4.871 4.87zM.482 17.652a14 14 0 0 0 2.412 4.871l4.871-4.87zM22.524 2.894A14 14 0 0 0 17.652.482v7.283zM5.477 25.106a14 14 0 0 0 4.87 2.412v-7.283zM10.348.482a14 14 0 0 0-4.872 2.412l4.872 4.871zM17.652 27.518a14 14 0 0 0 4.871-2.412l-4.87-4.871zM20.235 17.652l4.871 4.871c1.1-1.43 1.929-3.08 2.412-4.87z"/><path fill="#D80027" d="M27.882 12.174H15.826V.119a14.1 14.1 0 0 0-3.652 0v12.055H.119a14.1 14.1 0 0 0 0 3.652h12.055v12.055a14.1 14.1 0 0 0 3.652 0V15.827h12.055a14.1 14.1 0 0 0 0-3.652"/><path fill="#D80027" d="M17.652 17.652 23.9 23.9q.432-.431.823-.898l-5.348-5.349zM10.348 17.652 4.1 23.9q.432.43.9.823l5.348-5.35zM10.348 10.348 4.1 4.1a14 14 0 0 0-.823.898l5.348 5.349zM17.652 10.348 23.9 4.1a14 14 0 0 0-.9-.822l-5.348 5.348z"/></g><defs><clipPath id="a"><path fill="#fff" d="M0 0h28v28H0z"/></clipPath></defs></svg>
